X:1
T:Title
%%score 1 2 3
L:1/8
M:3/2
K:C
V:1 treble nm="Part_1"
V:2 treble-8 nm="Part_2"
V:3 treble-8 nm="Part_3"
V:1
 c12- | c8 _B4 | A4 F4 c2 _B2 | A2 G2 _B2 A2 G2 F2 | E2 F2 A2 G4 F2 | E4 D6 C2 | C4 z4 c4 | %7
 c8 _B4 | A2 _B2 c4 d4 | c4 B4 G4 | z2 d2 c2 B2 c2 A2 | c12 | z12 | A4 A4 A4 | E4 z4 G4 | %15
 A4 c6 _B2 | A2 _B2 d2 c2 c2 A2 | c2 _B2 (3:2:5G4 B2 A2 G2 F2 | E2 F2 A2 G2 c2 _B2 | A4 G6 F2 | %20
 F4 z2 F2 E2 D2 | F8 G4- | G4 A8 | _B4 A2 G4 F2 | F4 E6 D2 | F12 | z12 | A4 A4 A2 B2 | c8 c4 | %29
 A4 G6 F2 | F4 z2 E2 F2 G2 | A2 G2 A2 _B2 c2 A2 | d2 c2 A2 c2 _B2 G2 | _B2 A4 G2 F4 | %34
 E4 A2 G2 E2 F2 | E4 D6 C2 | C4 B,4 C2 D2 | E4 D6 E2 | C4 z4 c4 | c4 c8 | B4 B8 | A4 G4 F4 | %42
 E4 A8 | G8 c4 | _B4 A8 | G8 F4 | G4 z2 G2 B2 c2 | d2 B2 e2 d2 B2 c2 | d2 B4 G2 c2 B2 | %49
 G4 z2 c4 _B2- | B2 A4 G2 A2 F2 | G12 | z12 | A4 A4 A4 | c8 A4 | d4 c4 A4- | A4 G8 | F12- | F12 | %59
 A8 _B4 | _B8 A4 | _B4 A4 G4 | F2 G2 _B4 A4 | G2 A2 F2 G2 E2 F2 | !fermata!G12- | G8 z4 | c6 B6- | %67
 B6 c6 | d6 c6 | B12 | c12 | B12- | B12 | c8 _B4 | A4 G4 F4 | E4 A6 G2 | F4 E8 | D4 z2 D2 F2 G2 | %78
 A2 G2 A2 B2 c2 _B2 | G2 _B2 A2 F2 G2 E2 | D2 G4 A2 F2 E2 | G12- | G12 | A8 A4 | A8 A4 | G12- | %86
 G8 c4 | c8 A4- | A4 F8 | A4 d8 | A8 F4 | _B4 A2 G4 F2 | F4 E4 F2 D2 | F4 z2 F2 A2 _B2 | %94
 c2 A2 d2 c4 A2 | c2 _B2 G2 A4 B2 | c2 _B4 A4 G2 | A4 z4 F4 | E4 G8 | A8 G4 | F4 E8 | D4 z4 D4 | %102
 F4 A8 | c8 _B4 | A4 d8 | c8 A4 | F4 c6 _B2 | A4 G6 F2 | F8 z4 | A4 A4 A4 | E8 F4 | G4 F4 E4 | %112
 D4 z4 G4 | A4 c6 _B2 | A4 G2 F4 G2 | E2 F2 G4 E4 | C4 z4 A4 | c8 A4- | A4 F8 | z4 C4 D4 | %120
 E4 G6 A2 | F4 E6 D2 | F12 |] %123
V:2
[K:F] F12- | F12 | F12 | F12 | c12- | c4 =B8 | c12 | F8 F4 | f12 | e12 | d12 | c12- | c12 | %13
 d4 d4 d4 | c8 c4 | F12- | F12 | c12- | c12 | F4 E4 F4 | A4 B4 G4 | F8 E4 | E4 F8 | G8 B4 | A4 G8 | %25
 F12- | F12 | f4 f4 f4 | c8 c4 | d4 e8 | f12- | f12 | F12- | F12 | A8 c4 | c4 z4 B4 | c4 d4 e4 | %37
 c4 B8 | c8 z4 | c8 c4 | G8 G4 | F8 F4 | A8 A4 | B4 c8 | d8 c4 | B4 A8 | G12- | G12 | G12 | c8 G4 | %50
 c4 B4 A4 | G12- | G12 | F12- | F12 | f12- | f4 e8 | f12- | f12 | d12 | G8 d4 | G4 A4 B4 | %62
 A4 d6 c2 | B4 A8 | G12- | G8 z4 | A6 d6- | d6 e6 | f6 e6- | e6 d6 | c12 | d12- | d12 | c12 | %74
 d8 d4 | A8 B4- | B4 c8 | d8 B4 | A8 G4- | G4 F8 | B4 c4 A4 | G12- | G12 | F8 F4 | F8 F4 | c12- | %86
 c12 | F8 F4 | F8 F4 | f12- | f4 d8 | B8 A4- | A4 G8 | F12- | F12 | c8 d4 | d4 c4 B4 | A4 d8 | %98
 c8 B4 | A8 c4 | d4 c8 | d8 d4 | d8 f4- | f12 | f8 f4 | F8 F4 | F12- | F4 E8 | F12- | F12 | %110
 c4 c4 c4 | G8 A4 | B4 A4 G4 | F8 A4- | A4 B8 | c8 c4 | c8 f4- | f12 | d8 B4- | B4 A4 B4 | c8 B4 | %121
 A4 G8 | F12 |] %123
V:3
[K:F] f12- | f8 f4 | f4 d4 c4 | f4 f8 | z4 e4 d4 | c4 G8 | g8 g4 | f4 f8 | z4 F8 | c8 c4 | G4 G8 | %11
 g12- | g12 | f4 f4 f4 | g8 e4 | f12- | f8 d4 | f4 e8- | e8 d4 | c4 e4 c4 | c4 B8 | c12 | %22
 z4 c4 d4 | _e4 d6 c2 | c4 =B6 A2 | c12- | c12 | F4 F4 F4 | F8 F4 | A4 c8 | F12- | F12 | f12- | %33
 f8 d4 | c8 A4 | z4 B4 G4 | A4 G4 c4 | c4 G4 z4 | g8 f4 | e8 e4 | d8 e4 | f4 e4 d4 | c8 c4 | %43
 G4 z4 e4 | f8 e4 | d4 c6 B2 | d12- | d8 d4 | g4 g8 | e8 d4 | e4 d4 c4 | d8 G4 | c4 B4 z4 | %53
 c4 c4 c4 | c8 c4 | F12- | F4 c8 | F12- | F12 | f8 f4 | d6 e2 f4 | g4 e4 d4 | c4 G4 d4 | d4 c6 B2 | %64
 d12 | z12 | c6 G6- | G6 c6 | B6 c6 | G12 | g12 | G12- | G12 | g12 | f4 e4 d4 | c8 d4- | d4 G8 | %77
 B4 G4 z4 | c8 d4 | z4 A4 c4 | G4 z4 c4 | d8 d4 | c4 B4 z4 | c8 c4 | c8 d4 | e12- | e12 | f12- | %88
 f12 | z4 F8 | F8 F4 | G8 c4 | c4 =B6 A2 | c12- | c8 d4 | _e8 f4 | f4 z4 d4 | e4 f4 d4 | A4 z4 d4 | %99
 e8 e4 | f4 g8 | G8 B4 | B4 F4 z4 | F12- | F12 | c12- | c4 f4 d4 | c4 G8 | c12- | c12 | A8 z4 | %111
 d4 d4 c4 | G4 z4 d4 | f8 e4 | c4 d8 | A4 z4 A4 | A4 F8 | F8 F4 | z4 f4 d4 | d4 e4 d4 | A8 G4 | %121
 c4 B6 A2 | c12 |] %123

